public/img/parallel-black.svg

<svg id="Layer_1" width="512px" height="512px" enable-background="new 0 0 512 512" version="1.1" viewBox="0 0 512 512" xml:space="preserve" xmlns="http://www.w3.org/2000/svg"><g id="g4164" transform="matrix(0,-1,1,0,2.119872,511.49527)" fill="#333"><rect id="rect4714" y="480" width="512" height="32"/><rect id="rect4716" y="448" width="32" height="64"/><rect id="rect4716-3" x="64" y="448" width="32" height="64"/><rect id="rect4716-1" x="128" y="448" width="32" height="64"/><rect id="rect4716-39" x="192" y="448" width="32" height="64"/><rect id="rect4716-9" x="256" y="448" width="32" height="64"/><rect id="rect4716-3-4" x="320" y="448" width="32" height="64"/><rect id="rect4716-1-7" x="384" y="448" width="32" height="64"/><rect id="rect4716-39-7" x="448" y="448" width="32" height="64"/></g><g id="g4164-4" transform="matrix(0,-1,1,0,-212,512)" fill="#333"><rect id="rect4714-4" y="480" width="512" height="32"/><rect id="rect4716-8" y="448" width="32" height="64"/><rect id="rect4716-3-0" x="64" y="448" width="32" height="64"/><rect id="rect4716-1-1" x="128" y="448" width="32" height="64"/><rect id="rect4716-39-8" x="192" y="448" width="32" height="64"/><rect id="rect4716-9-4" x="256" y="448" width="32" height="64"/><rect id="rect4716-3-4-1" x="320" y="448" width="32" height="64"/><rect id="rect4716-1-7-2" x="384" y="448" width="32" height="64"/><rect id="rect4716-39-7-5" x="448" y="448" width="32" height="64"/></g><g id="g4164-4-9" transform="matrix(0,-1,1,0,-416,512)"><rect id="rect4714-4-6" y="480" width="512" height="32" fill="#333"/><rect id="rect4716-8-8" y="448" width="32" height="64" fill="#333"/><rect id="rect4716-3-0-7" x="64" y="448" width="32" height="64" fill="#333"/><rect id="rect4716-1-1-2" x="128" y="448" width="32" height="64" fill="#333"/><rect id="rect4716-39-8-1" x="192" y="448" width="32" height="64" fill="#333"/><rect id="rect4716-9-4-9" x="256" y="448" width="32" height="64" fill="#333"/><rect id="rect4716-3-4-1-4" x="320" y="448" width="32" height="64" fill="#333"/><rect id="rect4716-1-7-2-3" x="384" y="448" width="32" height="64" fill="#333"/><rect id="rect4716-39-7-5-0" x="448" y="448" width="32" height="64" fill="#333"/><path id="path4859" d="m395.70978 496.7571-129.21136 203.50788 134.05678 211.5836" fill="none" stroke="#333" stroke-width="8"/><path id="path4861" d="m143.74763 499.98738 64.60568 197.04732-66.22082 216.42902" fill="none" stroke="#333" stroke-width="8"/><path id="path4863" d="m272.95899 504.83281 182.51104 198.66246 6.46057 213.19873" fill="none" stroke="#333" stroke-width="8"/><path id="path4865" d="m201.89274 496.7571-108.21451 205.12302 179.28076 216.42902" fill="none" stroke="#333" stroke-width="8"/><path id="path4867" d="m470.0063 495.14195-229.35015 206.73817 195.43217 211.5836" fill="none" stroke="#333" stroke-width="8"/><path id="path4869" d="m69.4511 504.83281 51.68455 195.43217-37.14827 213.19874" fill="none" stroke="#333" stroke-width="8"/></g></svg>

<?xml version="1.0" encoding="UTF-8" standalone="no"?>
<!-- Generator: Adobe Illustrator 16.0.0, SVG Export Plug-In . SVG Version: 6.00 Build 0)  -->

<svg
   xmlns:dc="http://purl.org/dc/elements/1.1/"
   xmlns:cc="http://creativecommons.org/ns#"
   xmlns:rdf="http://www.w3.org/1999/02/22-rdf-syntax-ns#"
   xmlns:svg="http://www.w3.org/2000/svg"
   xmlns="http://www.w3.org/2000/svg"
   xmlns:sodipodi="http://sodipodi.sourceforge.net/DTD/sodipodi-0.dtd"
   xmlns:inkscape="http://www.inkscape.org/namespaces/inkscape"
   version="1.1"
   id="Layer_1"
   x="0px"
   y="0px"
   width="512px"
   height="512px"
   viewBox="0 0 512 512"
   enable-background="new 0 0 512 512"
   xml:space="preserve"
   inkscape:version="0.91 r13725"
   sodipodi:docname="parallel-black.svg"><metadata
     id="metadata4143"><rdf:RDF><cc:Work
         rdf:about=""><dc:format>image/svg+xml</dc:format><dc:type
           rdf:resource="http://purl.org/dc/dcmitype/StillImage" /><dc:title></dc:title></cc:Work></rdf:RDF></metadata><defs
     id="defs4141" /><sodipodi:namedview
     pagecolor="#ffffff"
     bordercolor="#666666"
     borderopacity="1"
     objecttolerance="10"
     gridtolerance="10"
     guidetolerance="10"
     inkscape:pageopacity="0"
     inkscape:pageshadow="2"
     inkscape:window-width="1536"
     inkscape:window-height="801"
     id="namedview4139"
     showgrid="false"
     inkscape:zoom="0.61914063"
     inkscape:cx="266.09767"
     inkscape:cy="322.8942"
     inkscape:window-x="-8"
     inkscape:window-y="-8"
     inkscape:window-maximized="1"
     inkscape:current-layer="g4164-4-9" /><g
     id="g4164"
     transform="matrix(0,-1,1,0,2.119872,511.49527)"><rect
       y="480"
       x="0"
       height="32"
       width="512"
       id="rect4714"
       style="fill:#333333;fill-opacity:1;stroke:none" /><rect
       y="448"
       x="0"
       height="64"
       width="32"
       id="rect4716"
       style="fill:#333333;fill-opacity:1;stroke:none" /><rect
       y="448"
       x="64"
       height="64"
       width="32"
       id="rect4716-3"
       style="fill:#333333;fill-opacity:1;stroke:none" /><rect
       y="448"
       x="128"
       height="64"
       width="32"
       id="rect4716-1"
       style="fill:#333333;fill-opacity:1;stroke:none" /><rect
       y="448"
       x="192"
       height="64"
       width="32"
       id="rect4716-39"
       style="fill:#333333;fill-opacity:1;stroke:none" /><rect
       y="448"
       x="256"
       height="64"
       width="32"
       id="rect4716-9"
       style="fill:#333333;fill-opacity:1;stroke:none" /><rect
       y="448"
       x="320"
       height="64"
       width="32"
       id="rect4716-3-4"
       style="fill:#333333;fill-opacity:1;stroke:none" /><rect
       y="448"
       x="384"
       height="64"
       width="32"
       id="rect4716-1-7"
       style="fill:#333333;fill-opacity:1;stroke:none" /><rect
       y="448"
       x="448"
       height="64"
       width="32"
       id="rect4716-39-7"
       style="fill:#333333;fill-opacity:1;stroke:none" /></g><g
     id="g4164-4"
     transform="matrix(0,-1,1,0,-212,512)"><rect
       y="480"
       x="0"
       height="32"
       width="512"
       id="rect4714-4"
       style="fill:#333333;fill-opacity:1;stroke:none" /><rect
       y="448"
       x="0"
       height="64"
       width="32"
       id="rect4716-8"
       style="fill:#333333;fill-opacity:1;stroke:none" /><rect
       y="448"
       x="64"
       height="64"
       width="32"
       id="rect4716-3-0"
       style="fill:#333333;fill-opacity:1;stroke:none" /><rect
       y="448"
       x="128"
       height="64"
       width="32"
       id="rect4716-1-1"
       style="fill:#333333;fill-opacity:1;stroke:none" /><rect
       y="448"
       x="192"
       height="64"
       width="32"
       id="rect4716-39-8"
       style="fill:#333333;fill-opacity:1;stroke:none" /><rect
       y="448"
       x="256"
       height="64"
       width="32"
       id="rect4716-9-4"
       style="fill:#333333;fill-opacity:1;stroke:none" /><rect
       y="448"
       x="320"
       height="64"
       width="32"
       id="rect4716-3-4-1"
       style="fill:#333333;fill-opacity:1;stroke:none" /><rect
       y="448"
       x="384"
       height="64"
       width="32"
       id="rect4716-1-7-2"
       style="fill:#333333;fill-opacity:1;stroke:none" /><rect
       y="448"
       x="448"
       height="64"
       width="32"
       id="rect4716-39-7-5"
       style="fill:#333333;fill-opacity:1;stroke:none" /></g><g
     id="g4164-4-9"
     transform="matrix(0,-1,1,0,-416,512)"><rect
       y="480"
       x="0"
       height="32"
       width="512"
       id="rect4714-4-6"
       style="fill:#333333;fill-opacity:1;stroke:none" /><rect
       y="448"
       x="0"
       height="64"
       width="32"
       id="rect4716-8-8"
       style="fill:#333333;fill-opacity:1;stroke:none" /><rect
       y="448"
       x="64"
       height="64"
       width="32"
       id="rect4716-3-0-7"
       style="fill:#333333;fill-opacity:1;stroke:none" /><rect
       y="448"
       x="128"
       height="64"
       width="32"
       id="rect4716-1-1-2"
       style="fill:#333333;fill-opacity:1;stroke:none" /><rect
       y="448"
       x="192"
       height="64"
       width="32"
       id="rect4716-39-8-1"
       style="fill:#333333;fill-opacity:1;stroke:none" /><rect
       y="448"
       x="256"
       height="64"
       width="32"
       id="rect4716-9-4-9"
       style="fill:#333333;fill-opacity:1;stroke:none" /><rect
       y="448"
       x="320"
       height="64"
       width="32"
       id="rect4716-3-4-1-4"
       style="fill:#333333;fill-opacity:1;stroke:none" /><rect
       y="448"
       x="384"
       height="64"
       width="32"
       id="rect4716-1-7-2-3"
       style="fill:#333333;fill-opacity:1;stroke:none" /><rect
       y="448"
       x="448"
       height="64"
       width="32"
       id="rect4716-39-7-5-0"
       style="fill:#333333;fill-opacity:1;stroke:none" /><path
       style="fill:none;fill-rule:evenodd;stroke:#333333;stroke-width:8;stroke-linecap:butt;stroke-linejoin:miter;stroke-opacity:1;stroke-miterlimit:4;stroke-dasharray:none"
       d="m 395.70978,496.7571 -129.21136,203.50788 134.05678,211.5836 0,0"
       id="path4859"
       inkscape:connector-curvature="0" /><path
       style="fill:none;fill-rule:evenodd;stroke:#333333;stroke-width:8;stroke-linecap:butt;stroke-linejoin:miter;stroke-opacity:1;stroke-miterlimit:4;stroke-dasharray:none"
       d="M 143.74763,499.98738 208.35331,697.0347 142.13249,913.46372"
       id="path4861"
       inkscape:connector-curvature="0" /><path
       style="fill:none;fill-rule:evenodd;stroke:#333333;stroke-width:8;stroke-linecap:butt;stroke-linejoin:miter;stroke-opacity:1;stroke-miterlimit:4;stroke-dasharray:none"
       d="M 272.95899,504.83281 455.47003,703.49527 461.9306,916.694"
       id="path4863"
       inkscape:connector-curvature="0" /><path
       style="fill:none;fill-rule:evenodd;stroke:#333333;stroke-width:8;stroke-linecap:butt;stroke-linejoin:miter;stroke-opacity:1;stroke-miterlimit:4;stroke-dasharray:none"
       d="M 201.89274,496.7571 93.67823,701.88012 272.95899,918.30914"
       id="path4865"
       inkscape:connector-curvature="0" /><path
       style="fill:none;fill-rule:evenodd;stroke:#333333;stroke-width:8;stroke-linecap:butt;stroke-linejoin:miter;stroke-opacity:1;stroke-miterlimit:4;stroke-dasharray:none"
       d="M 470.0063,495.14195 240.65615,701.88012 436.08832,913.46372"
       id="path4867"
       inkscape:connector-curvature="0" /><path
       style="fill:none;fill-rule:evenodd;stroke:#333333;stroke-width:8;stroke-linecap:butt;stroke-linejoin:miter;stroke-opacity:1;stroke-miterlimit:4;stroke-dasharray:none"
       d="M 69.4511,504.83281 121.13565,700.26498 83.98738,913.46372"
       id="path4869"
       inkscape:connector-curvature="0" /></g></svg>
